X:237
T:Darlan's Dellip to Donay Donnay Pba
Z: id:dc-slide-58
M:C|
L:1/8
K:G Major
Dg|dfaf d2ef|gfed cABc|dedB cAA2|cBce ABcA|!
EAAB cdeg|fdcA BGG2|DGGF G2GF|D2gf edBd|(3cd^c dcec|d2 (3 (3B32 G3g|d2Bd cAA2|!
fedc d2:|!